picto/tracks-8-fr-small.svg

<svg class="color-immutable" width="24" height="24" viewBox="0 0 24 24" fill="none" xmlns="http://www.w3.org/2000/svg"><path d="M0 22.5V1.5C0 0.675 0.675 0 1.5 0H22.5C23.325 0 24 0.675 24 1.5V22.5C24 23.325 23.325 24 22.5 24H1.5C0.675 24 0 23.325 0 22.5Z" fill="#2D327D"/><path d="M9.904 14.963C9.381 14.784 8.98 14.489 8.7 14.079C8.421 13.669 8.281 13.172 8.281 12.587C8.281 11.613 8.681 10.836 9.481 10.257C10.189 9.744 11.029 9.488 12.003 9.488C13.11 9.488 14.015 9.793 14.718 10.403C15.385 10.977 15.718 11.687 15.718 12.533C15.718 13.123 15.577 13.628 15.295 14.048C15.013 14.468 14.613 14.774 14.095 14.963C14.5 15.081 14.831 15.232 15.087 15.417C15.8 15.935 16.156 16.691 16.156 17.686C16.156 18.829 15.718 19.739 14.841 20.416C14.103 20.985 13.154 21.27 11.996 21.27C10.74 21.27 9.74 20.957 8.997 20.332C8.223 19.681 7.836 18.827 7.836 17.771C7.836 16.782 8.179 16.015 8.867 15.472C9.179 15.23 9.525 15.061 9.904 14.963ZM11.958 15.809C11.404 15.809 10.952 15.98 10.601 16.32C10.25 16.661 10.074 17.098 10.074 17.631C10.074 18.18 10.252 18.626 10.608 18.969C10.964 19.313 11.427 19.484 11.996 19.484C12.642 19.484 13.126 19.294 13.449 18.915C13.762 18.551 13.918 18.131 13.918 17.654C13.918 17.111 13.739 16.665 13.38 16.316C13.037 15.978 12.563 15.809 11.958 15.809ZM11.973 11.233C11.481 11.233 11.083 11.37 10.781 11.644C10.478 11.918 10.327 12.278 10.327 12.725C10.327 13.192 10.479 13.565 10.785 13.844C11.09 14.123 11.499 14.263 12.012 14.263C12.525 14.263 12.93 14.125 13.227 13.848C13.524 13.571 13.673 13.194 13.673 12.718C13.673 12.252 13.523 11.887 13.223 11.626C12.923 11.364 12.506 11.233 11.973 11.233Z" fill="white"/><path d="M5.036 3L4.288 5.249H3.73L2.993 3H3.507L4.013 4.684L4.527 3H5.036Z" fill="white"/><path d="M5.87399 3.523C6.11799 3.523 6.31699 3.604 6.47199 3.766C6.62499 3.926 6.70099 4.139 6.70099 4.406C6.70099 4.682 6.61899 4.902 6.45599 5.066C6.30399 5.218 6.10499 5.295 5.85999 5.295C5.59899 5.295 5.38999 5.21 5.23599 5.04C5.08799 4.877 5.01399 4.667 5.01399 4.409C5.01399 4.155 5.08599 3.948 5.22899 3.789C5.38899 3.612 5.60299 3.523 5.87399 3.523ZM5.85099 3.871C5.73299 3.871 5.63899 3.919 5.56999 4.014C5.49899 4.11 5.46299 4.242 5.46299 4.409C5.46299 4.582 5.49799 4.715 5.56799 4.807C5.63999 4.9 5.73799 4.947 5.86199 4.947C5.97799 4.947 6.06999 4.904 6.13699 4.819C6.21399 4.725 6.25199 4.588 6.25199 4.408C6.25199 4.24 6.21799 4.109 6.14999 4.016C6.07999 3.919 5.97999 3.871 5.85099 3.871Z" fill="white"/><path d="M7.44899 3V3.401H7.00299V3H7.44899ZM7.44899 3.572V5.249H7.00299V3.572H7.44899Z" fill="white"/><path d="M9.32099 4.726C9.29699 4.82 9.25499 4.909 9.19299 4.992C9.04499 5.194 8.83299 5.295 8.55599 5.295C8.30599 5.295 8.10499 5.216 7.95499 5.058C7.88099 4.981 7.82499 4.888 7.78599 4.78C7.74399 4.664 7.72299 4.543 7.72299 4.417C7.72299 4.173 7.79299 3.968 7.93399 3.802C8.09099 3.616 8.29399 3.524 8.54299 3.524C8.74399 3.524 8.91499 3.586 9.05699 3.71C9.15899 3.799 9.23199 3.909 9.27799 4.04C9.32399 4.171 9.34699 4.335 9.34699 4.533H8.17699C8.18099 4.615 8.19399 4.683 8.21499 4.738C8.27499 4.885 8.38999 4.958 8.55999 4.958C8.64299 4.958 8.71099 4.94 8.76299 4.903C8.81499 4.867 8.85799 4.808 8.89199 4.727H9.32099V4.726ZM8.89199 4.232C8.88399 4.151 8.86499 4.084 8.83599 4.031C8.80799 3.978 8.76699 3.937 8.71399 3.906C8.66099 3.875 8.60399 3.86 8.54099 3.86C8.44199 3.86 8.35999 3.893 8.29499 3.96C8.22999 4.026 8.19199 4.117 8.17999 4.232H8.89199Z" fill="white"/></svg>

<svg class="color-immutable" width="24" height="24" viewBox="0 0 24 24" fill="none" xmlns="http://www.w3.org/2000/svg"><g clip-path="url(#a)"><path d="M0 22.5v-21C0 .675.675 0 1.5 0h21c.825 0 1.5.675 1.5 1.5v21c0 .825-.675 1.5-1.5 1.5h-21C.675 24 0 23.325 0 22.5Z" fill="#2D327D"/><path d="M9.904 14.963c-.523-.179-.924-.474-1.204-.884-.279-.41-.419-.907-.419-1.492 0-.974.4-1.751 1.2-2.33.708-.513 1.548-.769 2.522-.769 1.107 0 2.012.305 2.715.915.667.574 1 1.284 1 2.13 0 .59-.141 1.095-.423 1.515-.282.42-.682.726-1.2.915.405.118.736.269.992.454.713.518 1.069 1.274 1.069 2.269 0 1.143-.438 2.053-1.315 2.73-.738.569-1.687.854-2.845.854-1.256 0-2.256-.313-2.999-.938-.774-.651-1.161-1.505-1.161-2.561 0-.989.343-1.756 1.031-2.299a2.831 2.831 0 0 1 1.037-.509Zm2.054.846c-.554 0-1.006.171-1.357.511-.351.341-.527.778-.527 1.311 0 .549.178.995.534 1.338.356.344.819.515 1.388.515.646 0 1.13-.19 1.453-.569.313-.364.469-.784.469-1.261 0-.543-.179-.989-.538-1.338-.343-.338-.817-.507-1.422-.507Zm.015-4.576c-.492 0-.89.137-1.192.411-.303.274-.454.634-.454 1.081 0 .467.152.84.458 1.119.305.279.714.419 1.227.419.513 0 .918-.138 1.215-.415.297-.277.446-.654.446-1.13 0-.466-.15-.831-.45-1.092-.3-.262-.717-.393-1.25-.393ZM5.036 3l-.748 2.249H3.73L2.993 3h.514l.506 1.684L4.527 3h.509ZM5.874 3.523a.79.79 0 0 1 .598.243c.153.16.229.373.229.64 0 .276-.082.496-.245.66a.807.807 0 0 1-.596.229c-.261 0-.47-.085-.624-.255-.148-.163-.222-.373-.222-.631 0-.254.072-.461.215-.62.16-.177.374-.266.645-.266Zm-.023.348a.33.33 0 0 0-.281.143.652.652 0 0 0-.107.395c0 .173.035.306.105.398.072.093.17.14.294.14a.332.332 0 0 0 .275-.128c.077-.094.115-.231.115-.411 0-.168-.034-.299-.102-.392a.347.347 0 0 0-.299-.145ZM7.449 3v.401h-.446V3h.446Zm0 .572v1.677h-.446V3.572h.446ZM9.321 4.726a.752.752 0 0 1-.128.266c-.148.202-.36.303-.637.303-.25 0-.451-.079-.601-.237a.775.775 0 0 1-.169-.278 1.058 1.058 0 0 1-.063-.363c0-.244.07-.449.211-.615a.76.76 0 0 1 .609-.278.754.754 0 0 1 .735.516c.046.131.069.295.069.493h-1.17c.004.082.017.15.038.205.06.147.175.22.345.22a.343.343 0 0 0 .203-.055.39.39 0 0 0 .129-.176h.429v-.001Zm-.429-.494a.525.525 0 0 0-.056-.201.334.334 0 0 0-.295-.171.328.328 0 0 0-.246.1.44.44 0 0 0-.115.272h.712Z" fill="#fff"/></g><defs><clipPath id="a"><path fill="#fff" d="M0 0h24v24H0z"/></clipPath></defs></svg>
